X:165
T:Trip to Ranalagh. Ru1.165, A
%%VWML:RutherfordVol1-2248-p63-0p63
Z:Transcription by Village Music Project, Steve Mansfield July 2015
F:http://www.village-music-project.org.uk/
F:http://www.vwml.org/record/RutherfordVol1/2248/p63
L:1/8
W:Cast of[f] and turn your Partner .| cast up again
W:and turn :| Cross over two Cu. Lead up to the
W:Top foot it and cast off .|. foot it Corners and
W:turn foot it the other Corners and turn your
W:Partner :|
Q:3/8=90
K:C
|:e/f/ge cGE AFD | e/f/ge cGE F2D | e/f/ge cGE AFD | GBc dcB c3 :|
|: BdB GBd fed | egf edc B3 | e/f/ge ceg gab | ^fdg faf g3 |
e/f/ge cGE AFD | e/f/ge cGE F2D | e/f/ge cGE AFD | GAB dcB c3 :|]
T:Give me Love and Liberty. Ru1.166
B:Rutherford's Country Dances Vol 1, 1756
Z:village music project, Steve Mansfield July 2015
M:2/4
L:1/8
W:Lead down one Cu. and slip down without
W:side the next Cu. and turn .| Lead up one Cu.
W:and slip up to the top and turn :| foot it
W:and hands round with the 2d Cu. .|. foot it
W:again and right hand and left :|
Q:2/4=60
K:G
|:B>cd>c | B>AG>F | G>AB>c | TA2 G2 |
B>cd>c | B>AG>F | G>AB>c | A4 :|
|: A>DD>A | B>GG>B | A>DD>A | TB2 G2 |
d>GG>d | e>fg>c | B2 A2 | G4 :|]
